src/assets/svg/icons/fa/nuevos/classic/duotone/code-commit classic duotone.svg

<svg xmlns="http://www.w3.org/2000/svg" viewBox="0 0 640 512"><!--! Font Awesome Pro 6.4.0 by @fontawesome - https://fontawesome.com License - https://fontawesome.com/license (Commercial License) Copyright 2023 Fonticons, Inc. --><defs><style>.fa-secondary{opacity:.4}</style></defs><path class="fa-primary" d="M320 176a80 80 0 1 1 0 160 80 80 0 1 1 0-160zm0 240a160 160 0 1 0 0-320 160 160 0 1 0 0 320z"/><path class="fa-secondary" d="M476.8 288c2.1-10.3 3.2-21 3.2-32s-1.1-21.7-3.2-32H608c17.7 0 32 14.3 32 32s-14.3 32-32 32H476.8zm-313.6 0H32c-17.7 0-32-14.3-32-32s14.3-32 32-32H163.2c-2.1 10.3-3.2 21-3.2 32s1.1 21.7 3.2 32z"/></svg>

<svg xmlns="http://www.w3.org/2000/svg" viewBox="0 0 640 512"><defs><style>.fa-secondary{opacity:.4}</style></defs><path class="fa-primary" d="M160 256C160 167.6 231.6 96 320 96C408.4 96 480 167.6 480 256C480 344.4 408.4 416 320 416C231.6 416 160 344.4 160 256zM320 336C364.2 336 400 300.2 400 256C400 211.8 364.2 176 320 176C275.8 176 240 211.8 240 256C240 300.2 275.8 336 320 336z"/><path class="fa-secondary" d="M476.8 288C478.9 277.7 480 266.1 480 256C480 245 478.9 234.3 476.8 224H608C625.7 224 640 238.3 640 256C640 273.7 625.7 288 608 288H476.8zM163.2 288H32C14.33 288 0 273.7 0 256C0 238.3 14.33 224 32 224H163.2C161.1 234.3 160 245 160 256C160 266.1 161.1 277.7 163.2 288z"/></svg>
